svg/django.svg

<svg viewBox="0 0 20 20" xmlns="http://www.w3.org/2000/svg">
<rect width="100%" height="100%" fill="#113228"/>
<path fill-rule="evenodd" clip-rule="evenodd" d="M11.3627 3H8.9543V6.63739C8.63026 6.55614 8.29725 6.51618 7.96318 6.51846C7.42619 6.47547 6.88621 6.54757 6.37931 6.72994C5.87242 6.91232 5.41027 7.20077 5.02376 7.57602C4.63725 7.95128 4.33527 8.40469 4.13799 8.90598C3.94072 9.40727 3.85269 9.94489 3.87979 10.4829C3.87979 12.9904 5.38629 14.2987 8.28034 14.2987C9.31626 14.295 10.3491 14.1854 11.3627 13.9716V3ZM8.18123 8.40157C8.46093 8.40952 8.73663 8.47004 8.99394 8.57997L8.98403 12.3066C8.71185 12.3483 8.43676 12.3682 8.16141 12.366C7.89941 12.3919 7.63497 12.3574 7.38836 12.2652C7.14174 12.1731 6.91951 12.0256 6.73868 11.8343C6.55786 11.6429 6.42325 11.4127 6.34516 11.1613C6.26707 10.9099 6.24759 10.6439 6.2882 10.3838C6.26032 10.1243 6.28939 9.86188 6.37338 9.61479C6.45737 9.36771 6.59427 9.14192 6.77451 8.95319C6.95475 8.76445 7.174 8.61732 7.41696 8.52205C7.65992 8.42677 7.92074 8.38566 8.18123 8.40157Z" fill="white"/>
<path d="M15.119 12.1579V6.66712H12.7601V11.3452C12.7601 13.4067 12.6511 14.1897 12.3141 14.8636C11.9075 15.6058 11.24 16.1708 10.4409 16.4494L12.6412 17.5C13.4679 17.1587 14.1484 16.5378 14.5639 15.7457C15.0467 14.6152 15.2376 13.3815 15.119 12.1579Z" fill="white"/>
<path d="M15.119 3.01982H12.7601V5.44805H15.119V3.01982Z" fill="white"/>
</svg>

<svg xmlns="http://www.w3.org/2000/svg" viewBox="0 0 20 20">
  <rect width="100%" height="100%" fill="#113228"/>
  <path fill="#fff" fill-rule="evenodd" d="M11.36 3h-2.4v3.64a3.96 3.96 0 0 0-1-.12 3.79 3.79 0 0 0-4.08 3.96c0 2.51 1.5 3.82 4.4 3.82 1.04 0 2.07-.11 3.08-.33V3ZM8.18 8.4c.28.01.56.07.81.18v3.73c-.28.04-.55.06-.83.06a1.72 1.72 0 0 1-1.87-1.99 1.8 1.8 0 0 1 1.9-1.98Z" clip-rule="evenodd"/>
  <path fill="#fff" d="M15.12 12.16v-5.5h-2.36v4.69c0 2.06-.1 2.84-.45 3.51-.4.75-1.07 1.31-1.87 1.59l2.2 1.05c.83-.34 1.5-.96 1.92-1.75.49-1.13.68-2.37.56-3.6ZM15.12 3.02h-2.36v2.43h2.36V3.02Z"/>
</svg>
